X: 04096
T: WALTER'S JIG
C: Bob McQuillen 29 Oct 78
B: Bob's Note Book 04 #96
R: jig
Z: 2019 John Chambers <jc:trillian.mit.edu>
M: 6/8
L: 1/8
K: D
A \
| dAA BAA | dBd AFD | FAd BGB | AFD E2A \
| dAA BAA | dBd AFD | FAd AFE | FDD D2 :|
|: A \
| faa eaa | fdA GBG | FAd fab | afd e2a \
| faa eaa | fdA GBG | FAd eag | fdd d2 :|
%%begintext align
%% For Walter Sweet, with
%% fondest Best Wishes always.
%% He's one of the best wooden flute
%% players I ever heard. He and
%% Ralph, his father, make those "Sweetheart"
%% flutes. Wonderful!
%%endtext

%%sep 1 1 500

%%sep 1 1 500

